public/img/index_features/layout-grid_feature.svg

<svg width="25" height="24" viewBox="0 0 25 24" fill="none" xmlns="http://www.w3.org/2000/svg">
<g id="layout-grid">
<path id="Vector" d="M9.50049 2.99998H4.50049C3.9482 2.99998 3.50049 3.44769 3.50049 3.99998V8.99998C3.50049 9.55226 3.9482 9.99998 4.50049 9.99998H9.50049C10.0528 9.99998 10.5005 9.55226 10.5005 8.99998V3.99998C10.5005 3.44769 10.0528 2.99998 9.50049 2.99998Z" stroke="#F56C87" stroke-width="2" stroke-linecap="round" stroke-linejoin="round"/>
<path id="Vector_2" d="M20.5 2.99998H15.5C14.9477 2.99998 14.5 3.44769 14.5 3.99998V8.99998C14.5 9.55226 14.9477 9.99998 15.5 9.99998H20.5C21.0523 9.99998 21.5 9.55226 21.5 8.99998V3.99998C21.5 3.44769 21.0523 2.99998 20.5 2.99998Z" stroke="#F56C87" stroke-width="2" stroke-linecap="round" stroke-linejoin="round"/>
<path id="Vector_3" d="M20.5 14H15.5C14.9477 14 14.5 14.4477 14.5 15V20C14.5 20.5523 14.9477 21 15.5 21H20.5C21.0523 21 21.5 20.5523 21.5 20V15C21.5 14.4477 21.0523 14 20.5 14Z" stroke="#F56C87" stroke-width="2" stroke-linecap="round" stroke-linejoin="round"/>
<path id="Vector_4" d="M9.50049 14H4.50049C3.9482 14 3.50049 14.4477 3.50049 15V20C3.50049 20.5523 3.9482 21 4.50049 21H9.50049C10.0528 21 10.5005 20.5523 10.5005 20V15C10.5005 14.4477 10.0528 14 9.50049 14Z" stroke="#F56C87" stroke-width="2" stroke-linecap="round" stroke-linejoin="round"/>
</g>
</svg>

<svg xmlns="http://www.w3.org/2000/svg" fill="none" viewBox="0 0 25 24"><path stroke="#F56C87" stroke-linecap="round" stroke-linejoin="round" stroke-width="2" d="M9.5 3h-5a1 1 0 0 0-1 1v5a1 1 0 0 0 1 1h5a1 1 0 0 0 1-1V4a1 1 0 0 0-1-1m11 0h-5a1 1 0 0 0-1 1v5a1 1 0 0 0 1 1h5a1 1 0 0 0 1-1V4a1 1 0 0 0-1-1m0 11h-5a1 1 0 0 0-1 1v5a1 1 0 0 0 1 1h5a1 1 0 0 0 1-1v-5a1 1 0 0 0-1-1m-11 0h-5a1 1 0 0 0-1 1v5a1 1 0 0 0 1 1h5a1 1 0 0 0 1-1v-5a1 1 0 0 0-1-1"/></svg>
